!!!OTL: Graf Friedrich Graf Friederich wollt' ausreiten
!!!ARE: Europa, Mitteleuropa, Deutschland / France, Lothringen
!!!YOR: 2, S. 199
!!    1926 gedruckt in Heidelberg
!!!SCT: Q0048B
!!!YEM: Copyright 1995, estate of Helmut Schaffrath.
**kern
*ICvox
*Ivox
!! Irregular meter.
*MX
*k[b-]
*F:
{4c
=1
8f
8f
4f
4.g
8a
=2
8b-
8a
4g}
{8a
8g
!*M6/8
!*M3/4
=3
4f
4c
8f
8f
8g
8a
=4
8b-
8cc
4g
8r}
{8.g
=5
8f
8e
8d
8.c
16d
8c
8c
=6
4f
8g
8g
8a
8f
!*M6/8
!*M3/4
=7
4g}
{8b-
8b-
4a
4g
=8
4f
4c
8f
8g
8a
8a
4g
=9
4f}
==
!!!AGN: Ballade, Hochzeit, Mord / Unfall, Tod
!! Kleinere Melodievariante abgedruckt.
!!!ONB: ESAC (Essen Associative Code) Database: BALLADE
!!!AMT: irregular
!!!AIN: vox
!!!EED: Helmut Schaffrath
!!!EEV: 1.0
*-
